modules/themify-icons/icons/stack-overflow.svg

<svg xmlns="http://www.w3.org/2000/svg" width="17" height="17" viewBox="0 0 17 17"><path d="M12.66 16.179c0 .312-.009.312-.009.312v.009H2.545c-.313 0-.313-.009-.313-.009h-.009V9.919h1.081v5.519h8.286V9.919h1.07v6.26zm-2.151-1.823l-6.312.009v-1.348l6.312-.009v1.348zm.152-3.07l-.116 1.339-6.295-.58.125-1.339 6.286.58zm.42-1.768l-.349 1.305-6.098-1.635.348-1.304 6.099 1.634zm.794-1.536l-.688 1.16L5.75 5.929l.687-1.161 5.438 3.214zm1.33-.946l-1.106.759-3.564-5.214 1.116-.769 3.554 5.224zm1.572-.312l-1.331.232-1.08-6.224L13.696.5l1.081 6.224z"/></svg>

<?xml version="1.0" encoding="utf-8"?>
<!-- Generated by IcoMoon.io -->
<!DOCTYPE svg PUBLIC "-//W3C//DTD SVG 1.1//EN" "http://www.w3.org/Graphics/SVG/1.1/DTD/svg11.dtd">
<svg version="1.1" xmlns="http://www.w3.org/2000/svg" xmlns:xlink="http://www.w3.org/1999/xlink" width="17" height="17" viewBox="0 0 17 17">
<g>
</g>
	<path d="M12.66 16.179c0 0.312-0.009 0.312-0.009 0.312v0.009h-10.106c-0.313 0-0.313-0.009-0.313-0.009h-0.009v-6.572h1.081v5.519h8.286v-5.519h1.070v6.26zM10.509 14.356l-6.312 0.009v-1.348l6.312-0.009v1.348zM10.661 11.286l-0.116 1.339-6.295-0.58 0.125-1.339 6.286 0.58zM11.081 9.518l-0.349 1.305-6.098-1.635 0.348-1.304 6.099 1.634zM11.875 7.982l-0.688 1.16-5.437-3.213 0.687-1.161 5.438 3.214zM13.205 7.036l-1.106 0.759-3.564-5.214 1.116-0.769 3.554 5.224zM14.777 6.724l-1.331 0.232-1.080-6.224 1.33-0.232 1.081 6.224z" fill="#000000" />
</svg>
